X:14
T:Palm Trees Wave on High
R:waltz
D:De Danann: Ballroom
Z:id:hn-waltz-14
M:3/4
L:1/8
K:A
c2d2 | e2^d2e2 | f4e2 | A6- | A2B2c2 | d4F2 | G4F2 | E6- | E2F2G2 |
A4B2 | c4d2 | e4a2 | e4d2 | c3BA2 |1 d4c2 | B6- | B2 :|2 d4G2 | A6- | A2 ||

